arkscan/icons/exodus.svg

<svg viewBox="0 0 20 20" fill="none" xmlns="http://www.w3.org/2000/svg">
  <path
    d="M14 9.98441L20 15.9751H17.875C17.5 15.9751 17.1875 15.8503 16.9375 15.6006L11.375 9.98441L16.9375 4.43058C17.1875 4.18097 17.5625 4.05617 17.875 4.05617H20L14 9.98441ZM3.0625 4.43058C2.8125 4.18097 2.4375 4.05617 2.125 4.05617H0L6 9.98441L0 15.9751H2.125C2.5 15.9751 2.8125 15.8503 3.0625 15.6006L8.625 10.0468C8.625 9.98441 3.0625 4.43058 3.0625 4.43058ZM10 11.3573L4.4375 16.9111C4.1875 17.1607 4.0625 17.5351 4.0625 17.8471V19.9688L10.0625 13.9782L16.0625 19.9688V17.8471C16.0625 17.4727 15.9375 17.1607 15.6875 16.9111L10 11.3573ZM10 8.61156L15.5625 3.05773C15.8125 2.80812 15.9375 2.4337 15.9375 2.12169V0L10 5.99065L4 0V2.12169C4 2.4961 4.125 2.80812 4.375 3.05773L10 8.61156Z"
    fill="url(#paint0_linear_3072_39141)" />
  <defs>
    <linearGradient id="paint0_linear_3072_39141" x1="-0.006165" y1="9.98441" x2="20.0088" y2="9.98441"
      gradientUnits="userSpaceOnUse">
      <stop stop-color="#00BFFF" />
      <stop offset="1" stop-color="#6619FF" />
    </linearGradient>
  </defs>
</svg>

<svg viewBox="0 0 20 20" fill="none" xmlns="http://www.w3.org/2000/svg"><path d="m14 9.984 6 5.991h-2.125c-.375 0-.688-.125-.938-.374l-5.562-5.617 5.563-5.553c.25-.25.625-.375.937-.375H20l-6 5.928ZM3.062 4.431a1.38 1.38 0 0 0-.937-.375H0l6 5.928-6 5.991h2.125c.375 0 .688-.125.938-.374l5.562-5.554c0-.063-5.563-5.616-5.563-5.616ZM10 11.357l-5.563 5.554c-.25.25-.375.624-.375.936v2.122l6-5.99 6 5.99v-2.122c0-.374-.125-.686-.375-.936L10 11.357Zm0-2.745 5.563-5.554c.25-.25.374-.624.374-.936V0L10 5.99 4 0v2.122c0 .374.125.686.375.936L10 8.612Z" fill="url(#a)"/><defs><linearGradient id="a" x1="-.006" y1="9.984" x2="20.009" y2="9.984" gradientUnits="userSpaceOnUse"><stop stop-color="#00BFFF"/><stop offset="1" stop-color="#6619FF"/></linearGradient></defs></svg>
